_site/img/speedy/compass.svg

<svg fill="none" height="400" viewBox="0 0 400 400" width="400" xmlns="http://www.w3.org/2000/svg"><g stroke-linecap="round" stroke-linejoin="round" stroke-miterlimit="10" stroke-width="12"><path d="m200 320.37c66.479 0 120.37-53.891 120.37-120.37s-53.891-120.37-120.37-120.37-120.37 53.891-120.37 120.37 53.891 120.37 120.37 120.37z" stroke="#191919"/><path d="m200 350c82.843 0 150-67.157 150-150s-67.157-150-150-150-150 67.157-150 150 67.157 150 150 150z" stroke="#191919"/><g stroke="#6a0bff"><path d="m220.35 220.35-77.75 37.05 37.05-77.75 77.75-37.05z"/><path d="m179.65 179.65 40.7 40.7"/></g></g></svg>

<svg width="400" height="400" viewBox="0 0 400 400" fill="none" xmlns="http://www.w3.org/2000/svg">
<path d="M200 320.37C266.479 320.37 320.37 266.479 320.37 200C320.37 133.521 266.479 79.63 200 79.63C133.521 79.63 79.63 133.521 79.63 200C79.63 266.479 133.521 320.37 200 320.37Z" stroke="#191919" stroke-width="12" stroke-miterlimit="10" stroke-linecap="round" stroke-linejoin="round"/>
<path d="M200 350C282.843 350 350 282.843 350 200C350 117.157 282.843 50 200 50C117.157 50 50 117.157 50 200C50 282.843 117.157 350 200 350Z" stroke="#191919" stroke-width="12" stroke-miterlimit="10" stroke-linecap="round" stroke-linejoin="round"/>
<path d="M220.35 220.35L142.6 257.4L179.65 179.65L257.4 142.6L220.35 220.35Z" stroke="#6A0BFF" stroke-width="12" stroke-miterlimit="10" stroke-linecap="round" stroke-linejoin="round"/>
<path d="M179.65 179.65L220.35 220.35" stroke="#6A0BFF" stroke-width="12" stroke-miterlimit="10" stroke-linecap="round" stroke-linejoin="round"/>
</svg>
